X: 15575
T: Glory, The
R: jig
M: 6/8
K: Gmajor
DEG AGA|BAG ABe|d2B AGE|A2B AGE|
DEG AGA|BAG ABe|d2B AGE|DEA G3:|
|:e2g edB-|BAB AGE|G2A Bdd-|dBd edB|
e2g edB-|BAB AGE|BAG AGE|DEA G3:|

